X: 10375
T: Donal O'Connor's
R: slide
M: 12/8
K: Gmajor
|:A|B2 B cBA G2 E D2 G|EFG A2 B c3 cBA|
B2 B cBA G2 E D2 G|EFG AFD G3 G2:|
|:E|D2 B BAB d2 B BAB|D2 G A2 B c2 A ABA|
D2 B BAB d2 B BAG|ABA FGA G3 G2:|

